!!!COM: Johannes Brahms
!!!CNT: Deutscher
!!!TXO: Deutsche
!!!OTL: Der Strom, der neben mir verrauschte
!!!OPS: Op. 32
!!!ONM: No. 4
!!!LYR: Platen
!!!ONB: Original key: Originaltonart
!!!ENC: Ayako Kataoka        
!!!EED: Leigh VanHandel
!!!YOR: C.F. Peters, Brahms Lieder fu2r eine Singstimme mit Klavierbegleitung, Band III, ausgabe fu2r tiefere Stimme
!!!ODT: 1864/
!!NB: Vocal melody and text only encoded.
**kern	**silbe
*clefG2	*
*k[f#c#g#d#]	*
*M4/4	*
*MM[moderato]	*
=1	=1
2r	.
4r	.
{4g#	{Der
=2	=2
4.c#	Strom,
8d#	der
4.e	ne-
8c#	-ben
=3	=3
4.f#	mir
8g#	ver
4a	rausch-
8f#	-te,
8d#	wo
=4	=4
(8c#	ist
8e)	|
(8g#	er
8a)	|
[2b	nun?
=5	=5
*M3/2	*
4b]}	|}
4r	.
2r	.
4r	.
{4dd#	{Der
=6	=6
*M4/4	*
4.g#	Vo-
8a#	-gel,
4.b	des-
8g#	-sen
=7	=7
4.cc#	Lied
8g#	ich
4f#	lausch-
8e	-te,
8e	wo
=8	=8
(8d#	ist
8f#)	|
(8a#	er
8b)	|
[2cc#	nun?
=9	=9
*M3/2	*
4cc#]}	|}
4r	.
2r	.
4r	.
{4cc#	{Wo
=10	=10
*M4/4	*
4.f#	ist
8g#	die
4a	Ro-
4f#	-se,
=11	=11
4.a	die
8b	die
4cc#	Freun-
8b	-din
8a	am
=12	=12
4g#	Her-
4a	-zen
4.b}	trug,}
{8b#	{und
=13	=13
4.cc#	je-
8cc#	-ner
8cc#	Kuss,
8gn	der
8f#	mich
8e	be-
=14	=14
4d#	-rausch-
4f#}	te,}
4r	.
8r	.
{8b	{wo
=15	=15
4a}	ist,}
8r	.
{8ccn	{wo
4b}	ist,}
8r	.
{8f#	{wo
=16	=16
(8e	ist
8g#)	|
(8a	er
8cc#)	|
[2dd#	nun?
=17	=17
4dd#]}	|}
4r	.
2r	.
=18	=18
*M3/2	*
2r	.
2r	.
4r	.
{4g#	{Und
=19	=19
*M4/4	*
4.c#	je-
8d#	-ner
4.e	Mensch,
8c#	der
=20	=20
4.f#	ich
8g#	ge-
4a	-we-
8f#}	-sen,}
{8cc#	{und
=21	=21
4b#	den
4cc#	ich
4.dd#	la2ngst
8a	mit
=22	=22
4.g#	ei-
8a	-nem
8b	an-
8fn	-dern
8e	Ich
8dn	ver-
=23	=23
4c#	-tausch-
4e}	-te,}
4r	.
8r	.
{8ddn	{wo
=24	=24
4a}	ist,}
8r	.
{8ddn	{wo
4a}	ist}
8r	.
{8a	{wo
=25	=25
(8fn	ist
8a)	|
(8cc#	er
8ddn)	|
[2ee	nun?
=26	=26
4ee]}	|}
4r	.
2r	.
=27	=27
*M3/2	*
4r	.
{4a	{wo
2g#	ist
2cc#	er
=28	=28
*M4/4	*
[1ee	nun?
=29	=29
4ee]}	|}
4r	.
2r	.
*-	*-
